img/main/symbols/instagram.svg

<svg width="24" height="24" viewBox="0 0 24 24" fill="none" xmlns="http://www.w3.org/2000/svg">
<path fill-rule="evenodd" clip-rule="evenodd" d="M16 2H8C4.68629 2 2 4.68629 2 8V16C2 19.3137 4.68629 22 8 22H16C19.3137 22 22 19.3137 22 16V8C22 4.68629 19.3137 2 16 2ZM4 8C4 5.79086 5.79086 4 8 4H16C18.2091 4 20 5.79086 20 8V16C20 18.2091 18.2091 20 16 20H8C5.79086 20 4 18.2091 4 16V8ZM12 17C9.23858 17 7 14.7614 7 12C7 9.23858 9.23858 7 12 7C14.7614 7 17 9.23858 17 12C17 14.7614 14.7614 17 12 17ZM12 15C13.6569 15 15 13.6569 15 12C15 10.3431 13.6569 9 12 9C10.3431 9 9 10.3431 9 12C9 13.6569 10.3431 15 12 15ZM18 7C18 7.55228 17.5523 8 17 8C16.4477 8 16 7.55228 16 7C16 6.44772 16.4477 6 17 6C17.5523 6 18 6.44772 18 7Z" fill="#EA8C3C"/>
</svg>

<svg width="24" height="24" fill="none" xmlns="http://www.w3.org/2000/svg"><path fill-rule="evenodd" clip-rule="evenodd" d="M16 2H8a6 6 0 00-6 6v8a6 6 0 006 6h8a6 6 0 006-6V8a6 6 0 00-6-6zM4 8a4 4 0 014-4h8a4 4 0 014 4v8a4 4 0 01-4 4H8a4 4 0 01-4-4V8zm8 9a5 5 0 110-10 5 5 0 010 10zm0-2a3 3 0 100-6 3 3 0 000 6zm6-8a1 1 0 11-2 0 1 1 0 012 0z" fill="#EA8C3C"/></svg>
